X:1
T:Simple scale
M:4/4
L:1/4
Q:1/4=120
K:C
C,, D,, E,, F,, | G,, A,, B,, C, | C, D, E, F, | G, A, B, C | C D E F | G A B c | c d e f | g a b c' | c' d' e' f' | g' a' b' c''
